icons/airpods-altB.svg

<svg width="24" height="24" viewBox="0 0 24 24" fill="none" xmlns="http://www.w3.org/2000/svg">
<path d="M12.0499 6.90002C12.0499 8.50002 11.1499 9.80002 9.74993 10.5C9.24993 10.7 8.64993 10.9 8.04993 10.9C6.74993 10.9 5.54993 10.3 4.84993 9.30002C4.34993 8.60002 4.04993 7.70002 4.04993 6.90002C4.04993 4.70002 5.84993 2.90002 8.04993 2.90002C10.2499 2.90002 12.0499 4.60002 12.0499 6.90002Z" fill="black"/>
<path fill-rule="evenodd" clip-rule="evenodd" d="M8.04993 3.65002C6.26414 3.65002 4.79993 5.11424 4.79993 6.90002C4.79993 7.53172 5.04386 8.28118 5.46023 8.8641L5.46438 8.86991L5.46435 8.86993C6.01358 9.65454 6.9759 10.15 8.04993 10.15C8.49037 10.15 8.96828 10.0031 9.4417 9.81548C10.5982 9.22649 11.2999 8.17723 11.2999 6.90002C11.2999 5.02648 9.84806 3.65002 8.04993 3.65002ZM3.29993 6.90002C3.29993 4.28581 5.43571 2.15002 8.04993 2.15002C10.6518 2.15002 12.7999 4.17357 12.7999 6.90002C12.7999 8.81284 11.7127 10.3572 10.0853 11.1708L10.0574 11.1848L10.0285 11.1964C9.51158 11.4031 8.80027 11.65 8.04993 11.65C6.52519 11.65 5.08861 10.9467 4.23757 9.73308C3.65516 8.9164 3.29993 7.86719 3.29993 6.90002Z" fill="black"/>
<path fill-rule="evenodd" clip-rule="evenodd" d="M4.50968 7.54895L5.36433 8.76988C5.91356 9.55449 6.87588 10.05 7.94991 10.05H8.00321L8.05597 10.0575C8.54053 10.1267 8.96748 9.99479 9.36403 9.75686L10.628 8.99846L9.99623 16.0746C9.85726 17.4642 8.62892 18.55 7.24991 18.55C5.87089 18.55 4.64259 17.4642 4.50363 16.0746L3.89991 10.0374V9.99998C3.89991 9.99392 3.89991 9.98787 3.8999 9.98181C3.89985 9.68091 3.89979 9.37861 4.03839 8.96281L4.50968 7.54895ZM5.49197 10.8833L5.99618 15.9253C6.05722 16.5357 6.62892 17.05 7.24991 17.05C7.86972 17.05 8.44043 16.5377 8.50328 15.9288L8.89665 11.5231C8.58656 11.5798 8.25305 11.5947 7.89775 11.5497C7.03566 11.5406 6.20364 11.3068 5.49197 10.8833Z" fill="black"/>
<path fill-rule="evenodd" clip-rule="evenodd" d="M13.2 12.8C13.2 10.6858 14.8357 9.05005 16.95 9.05005C19.0642 9.05005 20.7 10.6858 20.7 12.8C20.7 13.6534 20.4521 14.4229 19.9356 15.0686L18.7643 14.1315C19.0478 13.7771 19.2 13.3467 19.2 12.8C19.2 11.5143 18.2357 10.55 16.95 10.55C15.6642 10.55 14.7 11.5143 14.7 12.8C14.7 13.6907 15.2161 14.4446 15.9854 14.8292L15.3145 16.1709C14.0838 15.5555 13.2 14.3094 13.2 12.8Z" fill="black"/>
<path d="M15.6499 15.5001L16.0499 19.7001C16.1499 20.5001 16.7499 21.1001 17.5499 21.1001C18.3499 21.1001 18.9499 20.5001 19.0499 19.7001L19.4499 15.2001C19.4499 15.0001 19.4499 14.8001 19.3499 14.6001C18.8499 15.3001 17.9499 15.8001 16.9499 15.8001C16.5499 15.8001 16.0499 15.7001 15.6499 15.5001Z" fill="black"/>
<path fill-rule="evenodd" clip-rule="evenodd" d="M19.4637 13.1505L20.0208 14.2647C20.2015 14.6262 20.2005 14.9822 20.2 15.172C20.2 15.1818 20.1999 15.1912 20.1999 15.2001V15.2334L19.7958 19.7798L19.7941 19.7931C19.6536 20.9174 18.7775 21.8501 17.5499 21.8501C16.3224 21.8501 15.4463 20.9174 15.3057 19.7931L15.3044 19.7822L14.775 14.2241L15.9854 14.8293C16.2695 14.9713 16.6525 15.0501 16.9499 15.0501C17.7073 15.0501 18.3801 14.6675 18.7396 14.1642L19.4637 13.1505ZM18.6113 16.1643C18.1108 16.4092 17.5436 16.5501 16.9499 16.5501C16.8077 16.5501 16.6562 16.5404 16.5005 16.5206L16.7954 19.6167C16.858 20.0864 17.18 20.3501 17.5499 20.3501C17.9193 20.3501 18.2409 20.0872 18.3042 19.6187L18.6113 16.1643Z" fill="black"/>
</svg>

<svg xmlns="http://www.w3.org/2000/svg" fill="none" viewBox="0 0 24 24">
  <path fill="#000" d="M12.05 6.9c0 1.6-.9 2.9-2.3 3.6-.5.2-1.1.4-1.7.4-1.3 0-2.5-.6-3.2-1.6-.5-.7-.8-1.6-.8-2.4 0-2.2 1.8-4 4-4s4 1.7 4 4Z"/>
  <path fill="#000" fill-rule="evenodd" d="M8.05 3.65A3.262 3.262 0 0 0 4.8 6.9c0 .632.244 1.381.66 1.964l.004.006c.55.785 1.512 1.28 2.586 1.28.44 0 .918-.147 1.392-.335C10.598 9.226 11.3 8.177 11.3 6.9c0-1.874-1.452-3.25-3.25-3.25ZM3.3 6.9a4.762 4.762 0 0 1 4.75-4.75c2.602 0 4.75 2.024 4.75 4.75 0 1.913-1.087 3.457-2.715 4.27l-.028.015-.029.011c-.516.207-1.228.454-1.978.454-1.525 0-2.961-.703-3.812-1.917C3.655 8.916 3.3 7.867 3.3 6.9Z" clip-rule="evenodd"/>
  <path fill="#000" fill-rule="evenodd" d="m4.51 7.549.854 1.22c.55.785 1.512 1.281 2.586 1.281h.053l.053.007c.485.07.911-.062 1.308-.3l1.264-.759-.632 7.077c-.139 1.39-1.367 2.475-2.746 2.475-1.38 0-2.607-1.086-2.746-2.475L3.9 10.037v-.055c0-.301 0-.603.138-1.02L4.51 7.55Zm.982 3.334.504 5.042c.061.61.633 1.125 1.254 1.125.62 0 1.19-.512 1.253-1.121l.394-4.406c-.31.057-.644.072-1 .027a4.808 4.808 0 0 1-2.405-.667ZM13.2 12.8c0-2.114 1.636-3.75 3.75-3.75s3.75 1.636 3.75 3.75c0 .853-.248 1.623-.764 2.269l-1.172-.938c.284-.354.436-.784.436-1.331 0-1.286-.964-2.25-2.25-2.25s-2.25.964-2.25 2.25c0 .89.516 1.645 1.285 2.03l-.67 1.34c-1.231-.615-2.115-1.86-2.115-3.37Z" clip-rule="evenodd"/>
  <path fill="#000" d="m15.65 15.5.4 4.2c.1.8.7 1.4 1.5 1.4s1.4-.6 1.5-1.4l.4-4.5c0-.2 0-.4-.1-.6-.5.7-1.4 1.2-2.4 1.2-.4 0-.9-.1-1.3-.3Z"/>
  <path fill="#000" fill-rule="evenodd" d="m19.464 13.15.557 1.115c.18.361.18.717.179.907v.061l-.404 4.547-.002.013c-.14 1.124-1.017 2.057-2.244 2.057-1.228 0-2.104-.933-2.244-2.057l-.002-.01-.529-5.559 1.21.605c.285.142.668.221.965.221.757 0 1.43-.383 1.79-.886l.724-1.014Zm-.853 3.014c-.5.245-1.067.386-1.661.386-.142 0-.294-.01-.45-.03l.295 3.097c.063.47.385.733.755.733s.69-.263.754-.731l.307-3.455Z" clip-rule="evenodd"/>
</svg>
